!!!!SEGMENT: pl-kk--kk-i-329--001_costanzi-giovanni-battista--confitebor-confitebor.krn
!!!cenid: 17xx:1920
!!!COM: Costanzi, Giovanni Battista
!!!COM-rismID:
!!!CDT: 1704-1778
!!!CNT: Italian
!!!OPR: Confitebor
!!!OTL: Confitebor
!!!OMV: 001
!!!PDT:
!!!AGN: Sacred
!!!SMS-siglum: PL-Kk
!!!SMS-shelfmark: Kk.I.329
!!!SMS-shelfwork: 001-001 M
!!!SMS-variant:
!!!SMS-altvar:
!!!NIFC-rismSourceID: 1001143621
!!!NIFC-islandoraID: pl-kk:5543
!!!URL-pdf-islandora: https://repozytorium.nifc.pl/islandora/object/pl-kk%3A5543/datastream/PDF/view
!!!URL-scan: https://polish.musicsources.pl/pl/lokalizacje/galeria/rekopisy/5948 @EN{Scan on Polish Music Herritage in Open Access Website} @PL{Skany w portalu Dziedzictwo Muzyki Polskiej w otwartym dostępie}
!!!ONB-nifc: UWAGA: części Confitebor: 1. Confitebor, 2. Magna opera, 3. Confessio, 4. Memoriam fecit, 5. Memor erit, 6. Fidelia omnia, 7. Redemptionem, 8. Sanctum, 9. Intellectus bonus, 10. Gloria Patri, 11. Sicut erat, 12. Amen
!!!AIN: 2 alto 2 empty 1 organ 1 tenor 2 vox
!!!key:
**kern	**fba	**kern	**text	**kern	**text	**kern	**text	**kern	**text	**kern	**text	**kern	**text	**kern	**text
*part8	*	*part7	*part7	*part6	*part6	*part5	*part5	*part4	*part4	*part3	*part3	*part2	*part2	*part1	*part1
*group	*	*group2	*group2	*group2	*group2	*group2	*group2	*group2	*group2	*group1	*group1	*group1	*group1	*group1	*group1
*staff8	*	*staff7	*staff7	*staff6	*staff6	*staff5	*staff5	*staff4	*staff4	*staff3	*staff3	*staff2	*staff2	*staff1	*staff1
*Iorgan	*	*Iempty	*	*Itenor	*	*Ialto	*	*Ivox	*	*Iempty	*	*Ialto	*	*Ivox	*
*I"[Organo]	*	*I"Baſso di Ripieno	*	*I"Tenore di Ripieno	*	*I"Alto di Ripieno	*	*I"Canto di Ripieno	*	*I"Baſso di Concerto	*	*I"Alto di Concerto	*	*I"Canto di Concerto	*
*I'[org]	*	*I'B rip	*	*I'T rip	*	*I'A rip	*	*I'S rip	*	*I'B conc	*	*I'A conc	*	*I'S conc	*
*clefF4	*	*clefF4	*	*clefC4	*	*clefC3	*	*clefC1	*	*clefF4	*	*clefC3	*	*clefC1	*
*k[]	*	*k[]	*	*k[]	*	*k[]	*	*k[]	*	*k[]	*	*k[]	*	*k[]	*
*C:	*	*C:	*	*C:	*	*C:	*	*C:	*	*C:	*	*C:	*	*C:	*
*M4/4	*	*M4/4	*	*M4/4	*	*M4/4	*	*M4/4	*	*M4/4	*	*M4/4	*	*M4/4	*
*met(c)	*	*met(c)	*	*met(c)	*	*met(c)	*	*met(c)	*	*met(c)	*	*met(c)	*	*met(c)	*
!LO:TX:i:a:t=All.o	!	!	!	!	!	!	!	!	!	!	!	!	!	!LO:TX:a:i:t=Canto a 3e	!
!LO:TX:a:t=P:problem=napis "All.o" przed kluczem na pięciolinii	!	!	!	!	!	!	!	!	!	!	!	!	!	!	!
!LO:TX:a:i:t=à 3. Citor.lo	!	!	!	!	!	!	!	!	!	!LO:TX:i:a:t=Baſso a 3e	!	!LO:TX:i:a:t=a 3e	!	!	!
!LO:TX:i:b:t=Confilebor	!	!LO:TX:a:i:t=All.o Tutti	!	!LO:TX:a:i:t=Tutti	!	!LO:TX:a:i:t=Tutti	!	!LO:TX:a:i:t=Tutti	!	!LO:TX:i:a:t=All.o	!	!LO:TX:i:a:t=All.o	!	!LO:TX:i:a:t=All.o	!
!LO:TX:a:t=P:problem=nawa instrumentu wzięta ze strony tytułowej	!	!LO:TX:a:t=P:problem=napis "All.o Tutti" przed kluczem na pięciolinii	!	!LO:TX:a:t=P:problem=napis "Tutti" przed kluczem na pięciolinii	!	!LO:TX:a:t=P:problem=napis "Tutti" przed kluczem na pięciolinii	!	!LO:TX:a:t=P:problem=napis "Tutti" przed kluczem na pięciolinii	!	!LO:TX:a:t=P:problem=napis "All.o" przed kluczem na pięciolinii	!	!LO:TX:a:t=P:problem=napis "All.o" przed kluczem na pięciolinii	!	!LO:TX:a:t=P:problem=napis "All.o" przed kluczem na pięciolinii	!
8G\	.	8r	.	8r	.	8r	.	8r	.	8r	.	8r	.	8r	.
=1	=1	=1	=1	=1	=1	=1	=1	=1	=1	=1	=1	=1	=1	=1	=1
!	!	!LO:TX:b:t=31.	!	!LO:TX:b:t=31.	!	!LO:TX:b:t=31.	!	!LO:TX:b:t=31.	!	!LO:TX:b:t=4	!	!LO:TX:b:t=4	!	!LO:TX:b:t=2	!
!	!	!LO:N:vis=00	!	!LO:N:vis=00	!	!LO:N:vis=00	!	!LO:N:vis=00	!	!LO:N:vis=00	!	!LO:N:vis=00	!	!LO:N:vis=0	!
8c\L	.	00r	.	00r	.	00r	.	00r	.	00r	.	00r	.	0r	.
8G\J	.	.	.	.	.	.	.	.	.	.	.	.	.	.	.
8G\L	.	.	.	.	.	.	.	.	.	.	.	.	.	.	.
16A\L	.	.	.	.	.	.	.	.	.	.	.	.	.	.	.
16G\JJ	.	.	.	.	.	.	.	.	.	.	.	.	.	.	.
8F\L	.	.	.	.	.	.	.	.	.	.	.	.	.	.	.
8E\J	.	.	.	.	.	.	.	.	.	.	.	.	.	.	.
8r	.	.	.	.	.	.	.	.	.	.	.	.	.	.	.
8A\	.	.	.	.	.	.	.	.	.	.	.	.	.	.	.
=2	=2	=2	=2	=2	=2	=2	=2	=2	=2	=2	=2	=2	=2	=2	=2
8F\L	.	.	.	.	.	.	.	.	.	.	.	.	.	.	.
16E\L	.	.	.	.	.	.	.	.	.	.	.	.	.	.	.
16D\JJ	.	.	.	.	.	.	.	.	.	.	.	.	.	.	.
!LO:TX:t=P:problem=mixed beam	!	!	!	!	!	!	!	!	!	!	!	!	!	!	!
8G\L	.	.	.	.	.	.	.	.	.	.	.	.	.	.	.
8GG/J	.	.	.	.	.	.	.	.	.	.	.	.	.	.	.
!LO:LB:g=original	!	!	!	!	!	!	!	!	!	!	!	!	!	!	!
8C/L	.	.	.	.	.	.	.	.	.	.	.	.	.	.	.
8GG/J	.	.	.	.	.	.	.	.	.	.	.	.	.	.	.
4CC/	.	.	.	.	.	.	.	.	.	.	.	.	.	.	.
=3	=3	=3	=3	=3	=3	=3	=3	=3	=3	=3	=3	=3	=3	=3	=3
!LO:TX:a:i:t=C.o	!	!	!	!	!	!	!	!	!	!	!	!	!	!	!
8C\L	.	.	.	.	.	.	.	.	.	.	.	.	.	4cc\	Con-
8D\	.	.	.	.	.	.	.	.	.	.	.	.	.	.	.
8E\	.	.	.	.	.	.	.	.	.	.	.	.	.	4g\	-fi-
8D\J	.	.	.	.	.	.	.	.	.	.	.	.	.	.	.
8C/L	.	.	.	.	.	.	.	.	.	.	.	.	.	4.cc\	-te-
8D/	.	.	.	.	.	.	.	.	.	.	.	.	.	.	.
8E/	.	.	.	.	.	.	.	.	.	.	.	.	.	.	.
8C/J	.	.	.	.	.	.	.	.	.	.	.	.	.	8ee\	-bor
=4	=4	=4	=4	=4	=4	=4	=4	=4	=4	=4	=4	=4	=4	=4	=4
4F\	X 6	.	.	.	.	.	.	.	.	.	.	.	.	8dd\	ti-
.	X 5	.	.	.	.	.	.	.	.	.	.	.	.	4cc\	.
4G\	X 4	.	.	.	.	.	.	.	.	.	.	.	.	.	.
.	X 3	.	.	.	.	.	.	.	.	.	.	.	.	8b\	-bi
!	!	!	!	!	!	!	!	!	!	!	!	!	!	!LO:TX:a:t=P:problem=nieklarowny zapis przednutki	!
.	.	.	.	.	.	.	.	.	.	.	.	.	.	8qqdd/	.
8C\L	.	.	.	.	.	.	.	.	.	.	.	.	.	8cc\	Do-
8C\	.	.	.	.	.	.	.	.	.	.	.	.	.	16b\LL	-mi-
.	.	.	.	.	.	.	.	.	.	.	.	.	.	16a\JJ	.
8E\	.	.	.	.	.	.	.	.	.	.	.	.	.	4g\	-ne
8G\J	.	.	.	.	.	.	.	.	.	.	.	.	.	.	.
!	!	!	!	!	!	!	!	!	!	!	!	!	!	!LO:LB:g=original	!
=5	=5	=5	=5	=5	=5	=5	=5	=5	=5	=5	=5	=5	=5	=5	=5
!LO:TX:i:a:t=a p.2	!	!	!	!	!	!	!	!	!	!	!	!	!	!LO:TX:b:t=2	!
!	!	!LO:N:vis=00	!	!LO:N:vis=00	!	!LO:N:vis=00	!	!LO:N:vis=00	!	!	!	!	!	!LO:N:vis=0	!
4c\	.	00r	.	00r	.	00r	.	00r	.	4c\	Con-	4c\	Con-	0r	.
4C/	.	.	.	.	.	.	.	.	.	4G\	-fi-	4e\	-fi-	.	.
4C/	.	.	.	.	.	.	.	.	.	8E\L	-te-	4.g\	-te-	.	.
.	.	.	.	.	.	.	.	.	.	16D\L	.	.	.	.	.
.	.	.	.	.	.	.	.	.	.	16E\JJ	.	.	.	.	.
4C/	.	.	.	.	.	.	.	.	.	4C/	-bor	.	.	.	.
.	.	.	.	.	.	.	.	.	.	.	.	8e\	-bor	.	.
!LO:LB:g=original	!	!	!	!	!	!	!	!	!	!	!	!	!	!	!
=6	=6	=6	=6	=6	=6	=6	=6	=6	=6	=6	=6	=6	=6	=6	=6
4F\	.	.	.	.	.	.	.	.	.	4F\	ti-	8f\	ti-	.	.
.	6 4	.	.	.	.	.	.	.	.	.	.	4e\	.	.	.
4G\	5 3	.	.	.	.	.	.	.	.	4G\	-bi	.	.	.	.
.	.	.	.	.	.	.	.	.	.	.	.	8d\	-bi	.	.
4C/	.	.	.	.	.	.	.	.	.	8E\	do-	8e\	do-	.	.
.	.	.	.	.	.	.	.	.	.	16D\LL	-mi-	8B/	-mi-	.	.
.	.	.	.	.	.	.	.	.	.	16E\JJ	.	.	.	.	.
4C/	.	.	.	.	.	.	.	.	.	4C/	-ne	4c/	-ne	.	.
!	!	!	!	!	!	!	!	!	!	!	!	!LO:LB:g=original	!	!	!
=7	=7	=7	=7	=7	=7	=7	=7	=7	=7	=7	=7	=7	=7	=7	=7
*	*	*	*	*	*	*	*	*	*	*2\right	*	*	*	*	*
8C\L	.	.	.	.	.	.	.	.	.	2c\	in	2r	.	4cc\	In
8c\	.	.	.	.	.	.	.	.	.	.	.	.	.	.	.
8c\	.	.	.	.	.	.	.	.	.	.	.	.	.	8ee\	to-
8c\J	.	.	.	.	.	.	.	.	.	.	.	.	.	8cc\	-to
!	!	!	!	!	!	!	!	!	!	!LO:LB:g=original	!	!	!	!	!
!LO:TX:i:b:t=a 3.e	!	!	!	!	!	!	!	!	!	!	!	!	!	!	!
8B\L	X 6	.	.	.	.	.	.	.	.	4B\	to-	4g\	in	4dd\	Cor-
8B\	.	.	.	.	.	.	.	.	.	.	.	.	.	.	.
!	!	!	!	!	!	!	!	!	!	!	!	!LO:SIC:l:v:s=to-	!	!	!
8B\	.	.	.	.	.	.	.	.	.	4G\	-to	8b\	lo-	4g\	-de
8B\J	.	.	.	.	.	.	.	.	.	.	.	8g\	-to	.	.
=8	=8	=8	=8	=8	=8	=8	=8	=8	=8	=8	=8	=8	=8	=8	=8
8A\L	.	.	.	.	.	.	.	.	.	4A\	cor-	8g\L	cor-	8r	.
8A\	.	.	.	.	.	.	.	.	.	.	.	8f#X\J	.	8cc\	in
8D\	7 #3	.	.	.	.	.	.	.	.	4D\	.	[>4a\	.	8cc\	to-
8D\J	.	.	.	.	.	.	.	.	.	.	.	.	.	8cc\	-to
8G\L	4 9	.	.	.	.	.	.	.	.	4G\	.	4a\]	.	4cc\	cor-
8G\	.	.	.	.	.	.	.	.	.	.	.	.	.	.	.
8G\	3 6|	.	.	.	.	.	.	.	.	4GG/	-de	4g\	-de	4b\	-de
8G\J	.	.	.	.	.	.	.	.	.	.	.	.	.	.	.
!LO:LB:g=original	!	!	!	!	!	!	!	!	!	!	!	!	!	!	!
=9	=9	=9	=9	=9	=9	=9	=9	=9	=9	=9	=9	=9	=9	=9	=9
!	!	!LO:N:vis=00	!	!LO:N:vis=00	!	!LO:N:vis=00	!	!LO:N:vis=00	!	!	!	!	!	!	!
8G\L	.	00r	.	00r	.	00r	.	00r	.	[>2G\	Cor-	8g\L	cor-	8b\L	cor-
8G\	.	.	.	.	.	.	.	.	.	.	.	8a\J	.	8cc\J	.
8G\	.	.	.	.	.	.	.	.	.	.	.	[>4b\	.	[>4dd\	.
8G\J	.	.	.	.	.	.	.	.	.	.	.	.	.	.	.
!	!	!	!	!	!	!	!	!	!	!	!	!	!	!LO:LB:g=original	!
8G\L	.	.	.	.	.	.	.	.	.	4G\]	.	8b\L]	.	8dd\L]	.
8G\	.	.	.	.	.	.	.	.	.	.	.	8cc\J	.	8ee\	.
!	!	!	!	!	!	!	!	!	!	!	!	!LO:N:vis=8.	!	!	!
8C\	.	.	.	.	.	.	.	.	.	4C\	-de	8a\	.	8cc\	-de
8C\J	.	.	.	.	.	.	.	.	.	.	.	8g\	-de	8b\J	.
!	!	!	!	!	!	!	!	!	!	!	!	!LO:LB:g=original	!	!	!
=10	=10	=10	=10	=10	=10	=10	=10	=10	=10	=10	=10	=10	=10	=10	=10
8D\L	6 4	.	.	.	.	.	.	.	.	4D\	me-	4g\	me-	4b\	me-
8D\	.	.	.	.	.	.	.	.	.	.	.	.	.	.	.
8D\	3 #5	.	.	.	.	.	.	.	.	4D\	-o	4f#X\	-o	4a\	-o
8D\J	.	.	.	.	.	.	.	.	.	.	.	.	.	.	.
!LO:TX:i:a:t=C.o	!	!	!	!	!	!	!	!	!	!	!	!	!	!	!
8D\L	.	.	.	.	.	.	.	.	.	2r	.	2r	.	4dd\	in
8D\	X #3	.	.	.	.	.	.	.	.	.	.	.	.	.	.
8C\	X #	.	.	.	.	.	.	.	.	.	.	.	.	4f#X/	con-
8C\J	X 4	.	.	.	.	.	.	.	.	.	.	.	.	.	.
=11	=11	=11	=11	=11	=11	=11	=11	=11	=11	=11	=11	=11	=11	=11	=11
!	!	!	!	!	!	!	!	!	!	!LO:TX:b:t=3	!	!LO:TX:b:t=1	!	!	!
!	!	!	!	!	!	!	!	!	!	!LO:N:vis=0	!	!	!	!	!
8BB/L	.	.	.	.	.	.	.	.	.	0r	.	1r	.	4.g\	-si-
8AA/	.	.	.	.	.	.	.	.	.	.	.	.	.	.	.
8BB/	.	.	.	.	.	.	.	.	.	.	.	.	.	.	.
8GG/J	.	.	.	.	.	.	.	.	.	.	.	.	.	16a\LL	-lio
.	.	.	.	.	.	.	.	.	.	.	.	.	.	16b\JJ	.
8AA/L	X 3	.	.	.	.	.	.	.	.	.	.	.	.	4cc\	.
8AA/	.	.	.	.	.	.	.	.	.	.	.	.	.	.	.
8D/	X 3	.	.	.	.	.	.	.	.	.	.	.	.	4cc\	ius-
*	*below	*	*	*	*	*	*	*	*	*	*	*	*	*	*
8D/J	X #3	.	.	.	.	.	.	.	.	.	.	.	.	.	.
*	*above	*	*	*	*	*	*	*	*	*	*	*	*	*	*
!LO:LB:g=original	!	!	!	!	!	!	!	!	!	!	!	!	!	!	!
=12	=12	=12	=12	=12	=12	=12	=12	=12	=12	=12	=12	=12	=12	=12	=12
!	!	!	!	!	!	!	!	!	!	!	!	!	!	!LO:TX:a:t=P:problem=nieklarowny zapis przednutki	!
.	.	.	.	.	.	.	.	.	.	.	.	.	.	8qqdd/	.
8G\L	.	.	.	.	.	.	.	.	.	.	.	2r	.	4cc\	-to-
8G\	X 4	.	.	.	.	.	.	.	.	.	.	.	.	.	.
8G\	X 3	.	.	.	.	.	.	.	.	.	.	.	.	4b\	-rum
8G\J	.	.	.	.	.	.	.	.	.	.	.	.	.	.	.
!LO:TX:i:a:t=M.o	!	!	!	!	!	!	!	!	!	!	!	!	!	!	!
8G\L	.	.	.	.	.	.	.	.	.	.	.	4g\	in	2r	.
8G\	.	.	.	.	.	.	.	.	.	.	.	.	.	.	.
8Fn\	.	.	.	.	.	.	.	.	.	.	.	4B/	con-	.	.
8F\J	.	.	.	.	.	.	.	.	.	.	.	.	.	.	.
!	!	!	!	!	!	!	!	!	!	!	!	!	!	!LO:LB:g=original	!
=13	=13	=13	=13	=13	=13	=13	=13	=13	=13	=13	=13	=13	=13	=13	=13
!	!	!	!	!	!	!	!	!	!	!	!	!	!	!LO:TX:b:t=3	!
!	!	!LO:N:vis=00	!	!LO:N:vis=00	!	!LO:N:vis=00	!	!LO:N:vis=00	!	!	!	!	!	!LO:N:vis=0	!
8E\L	.	00r	.	00r	.	00r	.	00r	.	1r	.	4.c\	-ſi-	0r	.
8D\	.	.	.	.	.	.	.	.	.	.	.	.	.	.	.
8E\	.	.	.	.	.	.	.	.	.	.	.	.	.	.	.
8C\J	.	.	.	.	.	.	.	.	.	.	.	16d\LL	-lio	.	.
.	.	.	.	.	.	.	.	.	.	.	.	16e\JJ	.	.	.
8D/L	X n3	.	.	.	.	.	.	.	.	.	.	4fn\	.	.	.
8D/	.	.	.	.	.	.	.	.	.	.	.	.	.	.	.
8GG/	.	.	.	.	.	.	.	.	.	.	.	4f\	ius-	.	.
8GG/J	.	.	.	.	.	.	.	.	.	.	.	.	.	.	.
!	!	!	!	!	!	!	!	!	!	!LO:LB:g=original	!	!LO:LB:g=original	!	!	!
=14	=14	=14	=14	=14	=14	=14	=14	=14	=14	=14	=14	=14	=14	=14	=14
!LO:TX:i:a:t=B.o	!	!	!	!	!	!	!	!	!	!	!	!	!	!	!
8C/L	.	.	.	.	.	.	.	.	.	2c\	et	4f\	-to-	.	.
8C/	.	.	.	.	.	.	.	.	.	.	.	.	.	.	.
8C/	.	.	.	.	.	.	.	.	.	.	.	4e\	-rum	.	.
8C/J	.	.	.	.	.	.	.	.	.	.	.	.	.	.	.
8C/L	.	.	.	.	.	.	.	.	.	4C/	con-	2r	.	.	.
8C/	.	.	.	.	.	.	.	.	.	.	.	.	.	.	.
8C/	.	.	.	.	.	.	.	.	.	4E\	-gre-	.	.	.	.
8C/J	.	.	.	.	.	.	.	.	.	.	.	.	.	.	.
!LO:LB:g=original	!	!	!	!	!	!	!	!	!	!	!	!	!	!	!
=15	=15	=15	=15	=15	=15	=15	=15	=15	=15	=15	=15	=15	=15	=15	=15
!	!	!	!	!	!	!	!	!	!	!	!	!LO:TX:b:t=1	!	!	!
8C\L	.	.	.	.	.	.	.	.	.	4.G\	-ga-	1r	.	1r	.
8D\	.	.	.	.	.	.	.	.	.	.	.	.	.	.	.
8E\	.	.	.	.	.	.	.	.	.	.	.	.	.	.	.
8F\J	.	.	.	.	.	.	.	.	.	8A\	-ti-	.	.	.	.
8G\L	.	.	.	.	.	.	.	.	.	8G\L	-o-	.	.	.	.
8F\	.	.	.	.	.	.	.	.	.	8F\	.	.	.	.	.
8E\	.	.	.	.	.	.	.	.	.	8E\	.	.	.	.	.
8D\J	.	.	.	.	.	.	.	.	.	8D\J	.	.	.	.	.
=16	=16	=16	=16	=16	=16	=16	=16	=16	=16	=16	=16	=16	=16	=16	=16
!LO:TX:i:a:t=C.o	!	!	!	!	!	!	!	!	!	!	!	!	!	!	!
8C\L	.	.	.	.	.	.	.	.	.	2C\	-ne	2r	.	4ee\	et
8C\	.	.	.	.	.	.	.	.	.	.	.	.	.	.	.
8C\	.	.	.	.	.	.	.	.	.	.	.	.	.	8dd\L	.
8C\J	.	.	.	.	.	.	.	.	.	.	.	.	.	8ee\J	.
*	*	*	*	*	*	*	*	*	*	*	*	*	*	*2\right	*
!LO:TX:i:a:t=a 3.e	!	!	!	!	!	!	!	!	!	!	!	!	!	!	!
8E\L	.	.	.	.	.	.	.	.	.	2E\	et	4g\	et	[>2cc\	con-
8E\	.	.	.	.	.	.	.	.	.	.	.	.	.	.	.
8E\	.	.	.	.	.	.	.	.	.	.	.	8f\L	.	.	.
8E\J	.	.	.	.	.	.	.	.	.	.	.	8g\J	.	.	.
=17	=17	=17	=17	=17	=17	=17	=17	=17	=17	=17	=17	=17	=17	=17	=17
*	*	*	*	*	*	*	*	*	*	*	*	*2\right	*	*	*
!	!	!LO:N:vis=00	!	!LO:N:vis=00	!	!LO:N:vis=00	!	!LO:N:vis=00	!	!	!	!	!	!	!
8F\L	X 5	00r	.	00r	.	00r	.	00r	.	2F\	con-	[>2a\	con-	4cc\]	.
8F\	.	.	.	.	.	.	.	.	.	.	.	.	.	.	.
8F\	.	.	.	.	.	.	.	.	.	.	.	.	.	8b\L	-gre-
8F\J	.	.	.	.	.	.	.	.	.	.	.	.	.	8cc\J	.
8F#X\L	X 6	.	.	.	.	.	.	.	.	4F#X\	-gre-	4a\]	.	[>2dd\	-ga-
8F#\	.	.	.	.	.	.	.	.	.	.	.	.	.	.	.
8F#\	.	.	.	.	.	.	.	.	.	8E\L	.	8g\L	-gre-	.	.
8F#\J	.	.	.	.	.	.	.	.	.	8F#\J	.	8a\J	.	.	.
!	!	!	!	!	!	!	!	!	!	!LO:LB:g=original	!	!	!	!	!
=18	=18	=18	=18	=18	=18	=18	=18	=18	=18	=18	=18	=18	=18	=18	=18
8G\L	X 5	.	.	.	.	.	.	.	.	2G\	-ga-	[>2b\	-ga-	4dd\]	.
8G\	.	.	.	.	.	.	.	.	.	.	.	.	.	.	.
8G\	.	.	.	.	.	.	.	.	.	.	.	.	.	8cc\L	.
8G\J	.	.	.	.	.	.	.	.	.	.	.	.	.	8dd\J	.
!LO:LB:g=original	!	!	!	!	!	!	!	!	!	!	!	!	!	!	!
8G#X\L	X 6	.	.	.	.	.	.	.	.	4G#X\	.	4b\]	.	[>2ee\	.
8G#\	.	.	.	.	.	.	.	.	.	.	.	.	.	.	.
8G#\	.	.	.	.	.	.	.	.	.	8F#X\L	.	8a\L	.	.	.
8G#\J	.	.	.	.	.	.	.	.	.	8G#\J	.	8b\J	.	.	.
!	!	!	!	!	!	!	!	!	!	!	!	!LO:LB:g=original	!	!LO:LB:g=original	!
=19	=19	=19	=19	=19	=19	=19	=19	=19	=19	=19	=19	=19	=19	=19	=19
*2\right	*	*	*	*	*	*	*	*	*	*	*	*	*	*	*
[>2A\	.	.	.	.	.	.	.	.	.	[>2A\	.	8cc\L	.	8ee\L]	.
.	.	.	.	.	.	.	.	.	.	.	.	8b\	.	8dd\	.
.	.	.	.	.	.	.	.	.	.	.	.	8a\	.	8cc\	.
.	.	.	.	.	.	.	.	.	.	.	.	8g#X\J	.	8b\J	.
8A\L]	.	.	.	.	.	.	.	.	.	8A\L]	.	2a\	.	[>2cc\	.
8Gn\	.	.	.	.	.	.	.	.	.	8Gn\	.	.	.	.	.
8F#X\	.	.	.	.	.	.	.	.	.	8F#X\	.	.	.	.	.
8E\J	.	.	.	.	.	.	.	.	.	8E\J	.	.	.	.	.
=20	=20	=20	=20	=20	=20	=20	=20	=20	=20	=20	=20	=20	=20	=20	=20
2F#X\	X 5	.	.	.	.	.	.	.	.	[>2F#X\	.	8a\L	.	8cc\L]	.
.	X 6	.	.	.	.	.	.	.	.	.	.	8gn\	.	8b\	.
.	.	.	.	.	.	.	.	.	.	.	.	8a\	.	8cc\	.
.	.	.	.	.	.	.	.	.	.	.	.	8b\J	.	8dd\J	.
4D\	.	.	.	.	.	.	.	.	.	8F#\L]	.	2a\	.	2cc\	-ti-
.	.	.	.	.	.	.	.	.	.	8D\	.	.	.	.	.
8E\L	.	.	.	.	.	.	.	.	.	8E\	-ti-	.	.	.	.
8F#X\J	.	.	.	.	.	.	.	.	.	8F#X\J	.	.	.	.	.
=21	=21	=21	=21	=21	=21	=21	=21	=21	=21	=21	=21	=21	=21	=21	=21
!	!	!LO:N:vis=00	!	!LO:N:vis=00	!	!LO:N:vis=00	!	!LO:N:vis=00	!	!	!	!	!	!	!
4G\	.	00r	.	00r	.	00r	.	00r	.	4G\	-o-	8g\L	-tio-	8b\L	-one
.	.	.	.	.	.	.	.	.	.	.	.	8a\J	-ne	8cc\J	.
4GG/	.	.	.	.	.	.	.	.	.	4GG/	-ne	4b\	.	4dd\	.
!	!	!	!	!	!	!	!	!	!	!LO:LB:g=original	!	!	!	!	!
2G\	.	.	.	.	.	.	.	.	.	2G\	et	4r	.	4r	.
.	.	.	.	.	.	.	.	.	.	.	.	4b\	et	4dd\	et
!LO:LB:g=original	!	!	!	!	!	!	!	!	!	!	!	!	!	!	!
=22	=22	=22	=22	=22	=22	=22	=22	=22	=22	=22	=22	=22	=22	=22	=22
4BB/	.	.	.	.	.	.	.	.	.	4BB/	con-	4b\	Con-	4dd\	con-
4G\	.	.	.	.	.	.	.	.	.	4G\	-gre-	4b\	-gre-	4dd\	-gre-
4C/	X 6	.	.	.	.	.	.	.	.	4C/	-ga-	4a\	-ga-	4cc\	-ga-
4G\	.	.	.	.	.	.	.	.	.	4G\	.	4a\	-ti-	4cc\	-ti-
!	!	!	!	!	!	!	!	!	!	!	!	!LO:LB:g=original	!	!	!
=23	=23	=23	=23	=23	=23	=23	=23	=23	=23	=23	=23	=23	=23	=23	=23
2D\	X 7	.	.	.	.	.	.	.	.	2D\	.	2a\	-o-	2cc\	-o-
.	X #3	.	.	.	.	.	.	.	.	.	.	.	.	.	.
4E\	.	.	.	.	.	.	.	.	.	4E\	.	4g\	-ne	4b\	-ne
4G\	.	.	.	.	.	.	.	.	.	4G\	.	4r	.	4r	.
!	!	!	!	!	!	!	!	!	!	!	!	!	!	!LO:LB:g=original	!
=24	=24	=24	=24	=24	=24	=24	=24	=24	=24	=24	=24	=24	=24	=24	=24
4GG/	.	.	.	.	.	.	.	.	.	4GG/	.	2g\	con-	2dd\	con-
8AA/L	.	.	.	.	.	.	.	.	.	8AA/L	.	.	.	.	.
8BB/J	.	.	.	.	.	.	.	.	.	8BB/J	.	.	.	.	.
8C\L	.	.	.	.	.	.	.	.	.	8C/L	.	2g\	-gre-	2ee\	-gre-
8D\	.	.	.	.	.	.	.	.	.	8D/	.	.	.	.	.
8E\	.	.	.	.	.	.	.	.	.	8E/	.	.	.	.	.
8F#X\J	.	.	.	.	.	.	.	.	.	8F#X/J	.	.	.	.	.
=25	=25	=25	=25	=25	=25	=25	=25	=25	=25	=25	=25	=25	=25	=25	=25
!	!	!LO:N:vis=00	!	!LO:N:vis=00	!	!LO:N:vis=00	!	!LO:N:vis=00	!	!	!	!	!	!	!
8G\L	.	00r	.	00r	.	00r	.	00r	.	8G\L	.	2g\	-ga-	8dd\L	-ga-
8A\	.	.	.	.	.	.	.	.	.	8A\	.	.	.	8cc\J	.
8B\	.	.	.	.	.	.	.	.	.	8B\	.	.	.	4b\	.
8c\J	.	.	.	.	.	.	.	.	.	8c\J	.	.	.	.	.
!LO:PB:g=original	!	!	!	!	!	!	!	!	!	!LO:LB:g=original	!	!	!	!	!
4d\	X #3	.	.	.	.	.	.	.	.	4d\	.	8f#X\L	.	8a\L	.
.	.	.	.	.	.	.	.	.	.	.	.	8a\J	.	8cc\	.
4G\	.	.	.	.	.	.	.	.	.	4G\	-ti-	4g\	-ti-	8b\	.
.	.	.	.	.	.	.	.	.	.	.	.	.	.	8g\J	-ti-
=26	=26	=26	=26	=26	=26	=26	=26	=26	=26	=26	=26	=26	=26	=26	=26
2D\	.	.	.	.	.	.	.	.	.	2D\	-o-	4g\	-o-	2a\	-one
.	.	.	.	.	.	.	.	.	.	.	.	4f#X\	.	.	.
4GG/	.	.	.	.	.	.	.	.	.	4GG/	-ne	4g\	-ne	4g\	.
4G\	.	.	.	.	.	.	.	.	.	4G\	et	4r	.	4r	.
!	!	!	!	!	!	!	!	!	!	!	!	!LO:LB:g=original	!	!	!
=27	=27	=27	=27	=27	=27	=27	=27	=27	=27	=27	=27	=27	=27	=27	=27
4BB/	.	.	.	.	.	.	.	.	.	4BB/	con-	4b\	Con-	4dd\	et
4G\	.	.	.	.	.	.	.	.	.	4G\	-gre-	4b\	-gre-	4dd\	con-
4C/	6 5	.	.	.	.	.	.	.	.	4C/	-ga-	4a\	-ga-	4cc\	-gre-
4G\	.	.	.	.	.	.	.	.	.	4G\	.	4a\	-ti-	4cc\	-ga-
=28	=28	=28	=28	=28	=28	=28	=28	=28	=28	=28	=28	=28	=28	=28	=28
2D\	# 7	.	.	.	.	.	.	.	.	2D\	.	4a\	-o-	2cc\	-tio-
.	X 3	.	.	.	.	.	.	.	.	.	.	4f#X\	-ne	.	.
4E\	X 5	.	.	.	.	.	.	.	.	4E\	.	4g\	.	4b\	-ne
4G\	.	.	.	.	.	.	.	.	.	4G\	.	4r	.	4r	.
!LO:LB:g=original	!	!	!	!	!	!	!	!	!	!	!	!	!	!LO:LB:g=original	!
=29	=29	=29	=29	=29	=29	=29	=29	=29	=29	=29	=29	=29	=29	=29	=29
!	!	!LO:N:vis=0	!	!LO:N:vis=0	!	!LO:N:vis=0	!	!LO:N:vis=0	!	!	!	!	!	!	!
4GG/	.	0r	.	0r	.	0r	.	0r	.	4GG/	.	2g\	con-	2dd\	con-
8AA/L	.	.	.	.	.	.	.	.	.	8AA/L	.	.	.	.	.
8BB/J	.	.	.	.	.	.	.	.	.	8BB/J	.	.	.	.	.
8C\L	.	.	.	.	.	.	.	.	.	8C/L	.	2g\	-gre-	2ee\	-gre-
8D\	.	.	.	.	.	.	.	.	.	8D/	.	.	.	.	.
8E\	.	.	.	.	.	.	.	.	.	8E/	.	.	.	.	.
8F#X\J	.	.	.	.	.	.	.	.	.	8F#X/J	.	.	.	.	.
!	!	!	!	!	!	!	!	!	!	!LO:LB:g=original	!	!	!	!	!
=30	=30	=30	=30	=30	=30	=30	=30	=30	=30	=30	=30	=30	=30	=30	=30
8G\L	.	.	.	.	.	.	.	.	.	8G\L	.	2g\	-ga-	8dd\L	-ga-
8A\	.	.	.	.	.	.	.	.	.	8A\	.	.	.	8cc\J	.
8B\	.	.	.	.	.	.	.	.	.	8B\	.	.	.	4b\	.
8c\J	.	.	.	.	.	.	.	.	.	8c\J	.	.	.	.	.
4d\	X #3	.	.	.	.	.	.	.	.	4d\	.	8f#X\L	.	8a\L	.
.	.	.	.	.	.	.	.	.	.	.	.	8a\J	.	8cc\J	.
4G\	.	.	.	.	.	.	.	.	.	4G\	-ti-	4g\	-ti-	8b\	.
.	.	.	.	.	.	.	.	.	.	.	.	.	.	8g\	-ti-
=31	=31	=31	=31	=31	=31	=31	=31	=31	=31	=31	=31	=31	=31	=31	=31
4D\	X 4	1r	.	1r	.	1r	.	1r	.	2D\	-o-	4g\	-o-	2a\	-o-
.	X #3	.	.	.	.	.	.	.	.	.	.	.	.	.	.
4DD/	.	.	.	.	.	.	.	.	.	.	.	4f#X\	.	.	.
8GG/L	.	.	.	.	.	.	.	.	.	4GG/	-ne	4g\	-ne	4g\	-ne
8GG/	.	.	.	.	.	.	.	.	.	.	.	.	.	.	.
8BB/	.	.	.	.	.	.	.	.	.	4r	.	4r	.	4r	.
*	*below	*	*	*	*	*	*	*	*	*	*	*	*	*	*
8D/J	X 3	.	.	.	.	.	.	.	.	.	.	.	.	.	.
*	*above	*	*	*	*	*	*	*	*	*	*	*	*	*	*
!	!	!	!	!	!	!	!	!	!	!	!	!LO:LB:g=original	!	!	!
=32	=32	=32	=32	=32	=32	=32	=32	=32	=32	=32	=32	=32	=32	=32	=32
*	*	*2\right	*	*2\right	*	*2\right	*	*2\right	*	*	*	*	*	*	*
!LO:TX:i:a:t=Tutti	!	!	!	!	!	!	!	!	!	!LO:TX:b:t=18	!	!LO:TX:b:t=18.	!	!LO:TX:b:t=17.	!
!	!	!	!	!	!	!	!	!	!	!LO:N:vis=00	!	!LO:N:vis=00	!	!LO:N:vis=00	!
!	!	!	!	!	!	!	!	!	!	!	!	!LO:TX:a:t=P:problem=zamiast "18." powinno być "17"	!	!	!
2G\	.	2G\	Con-	2d\	Con-	2g\	Con-	2b\	Con-	00r	.	00r	.	00r	.
2c\	.	2c\	-fi-	2e\	-fi-	2g\	-fi-	2cc\	-fi-	.	.	.	.	.	.
!LO:LB:g=original	!	!	!	!	!	!	!	!	!	!	!	!	!	!	!
=33	=33	=33	=33	=33	=33	=33	=33	=33	=33	=33	=33	=33	=33	=33	=33
4B\	.	4B\	-te-	4d\	-te-	2g\	-te-	4g\	-te-	.	.	.	.	.	.
8A\L	.	8A\L	-bor	8d\L	-bor	.	.	8a\L	-bor	.	.	.	.	.	.
8G\J	.	8G\J	.	8B\J	.	.	.	8b\J	.	.	.	.	.	.	.
!	!	!LO:LB:g=original	!	!	!	!	!	!	!	!	!	!	!	!	!
4c\	.	4c\	Ti-	4e\	Ti-	2g\	-bor	4cc\	Ti-	.	.	.	.	.	.
4c\	.	4c\	-bi	4e\	-bi	.	.	4cc\	-bi	.	.	.	.	.	.
!	!	!	!	!LO:LB:g=original	!	!	!	!LO:LB:g=original	!	!	!	!	!	!	!
=34	=34	=34	=34	=34	=34	=34	=34	=34	=34	=34	=34	=34	=34	=34	=34
4B\	.	4B\	Do-	4d\	Do-	2g\	Ti-	4g\	Do-	.	.	.	.	.	.
8A\L	.	8A\L	-mi-	8c\L	-mi-	.	.	8a\L	-mi-	.	.	.	.	.	.
8G\J	.	8G\J	.	8B\J	.	.	.	8b\J	.	.	.	.	.	.	.
4c\	.	4c\	-ne	4e\	-ne	2g\	-bi	4cc\	-ne	.	.	.	.	.	.
4c\	.	4c\	in	4e\	in	.	.	4cc\	in	.	.	.	.	.	.
!	!	!	!	!	!	!LO:LB:g=original	!	!	!	!	!	!	!	!	!
=35	=35	=35	=35	=35	=35	=35	=35	=35	=35	=35	=35	=35	=35	=35	=35
4F\	.	4F\	to-	4e\	to-	4a\	Do-	4cc\	to-	.	.	.	.	.	.
4E\	.	4E\	-to	4c\	-to	4g\	.	4cc\	-to	.	.	.	.	.	.
4D\	.	4D\	Cor-	4d\	Cor-	4f\	.	4cc\	Cor-	.	.	.	.	.	.
4G\	.	4G\	-de	4d\	-de	[>4g\	.	4b\	-de	.	.	.	.	.	.
=36	=36	=36	=36	=36	=36	=36	=36	=36	=36	=36	=36	=36	=36	=36	=36
!	!	!	!	!	!	!	!	!	!	!LO:N:vis=00	!	!LO:N:vis=00	!	!LO:N:vis=00	!
4E\	.	4E\	me-	8e\L	me-	4g\]	.	4cc\	me-	00r	.	00r	.	00r	.
.	.	.	.	8f\J	.	.	.	.	.	.	.	.	.	.	.
8D\L	.	8D\L	.	4g\	-o	8f\L	-mi-	4a\	-o,	.	.	.	.	.	.
8E\J	.	8E\J	.	.	.	8g\J	.	.	.	.	.	.	.	.	.
!	!	!LO:LB:g=original	!	!	!	!	!	!	!	!	!	!	!	!	!
4C\	.	4C/	-o	2e\	in	4e\	-ne	8r	.	.	.	.	.	.	.
.	.	.	.	.	.	.	.	8cc\	in	.	.	.	.	.	.
4c\	.	4r	.	.	.	4r	.	8ee\	to-	.	.	.	.	.	.
.	.	.	.	.	.	.	.	8cc\	-to	.	.	.	.	.	.
!LO:LB:g=original	!	!	!	!LO:LB:g=original	!	!	!	!LO:LB:g=original	!	!	!	!	!	!	!
=37	=37	=37	=37	=37	=37	=37	=37	=37	=37	=37	=37	=37	=37	=37	=37
4B\	X 6	8r	.	2d\	to-	8r	.	4gg\	Cor-	.	.	.	.	.	.
.	.	8G\	in	.	.	8b\	in	.	.	.	.	.	.	.	.
4G\	.	8B\	to-	.	.	8g\	to-	4g\	-de	.	.	.	.	.	.
.	.	8G\	-to	.	.	8b\	-to	.	.	.	.	.	.	.	.
4A\	.	4A\	Cor-	2c\	-to	4a\	Cor-	8r	.	.	.	.	.	.	.
.	.	.	.	.	.	.	.	8a\	in	.	.	.	.	.	.
4AA/	.	4AA/	-de	.	.	4a\	-de	8cc\	to-	.	.	.	.	.	.
.	.	.	.	.	.	.	.	8a\	-to	.	.	.	.	.	.
!	!	!	!	!	!	!LO:LB:g=original	!	!	!	!	!	!	!	!	!
=38	=38	=38	=38	=38	=38	=38	=38	=38	=38	=38	=38	=38	=38	=38	=38
2E\	.	8r	.	2B\	Cor-	8r	.	4b\	Cor-	.	.	.	.	.	.
.	.	8E\	in	.	.	8g\	in	.	.	.	.	.	.	.	.
.	.	8G\	to-	.	.	8e\	to-	4e/	-de	.	.	.	.	.	.
.	.	8E\	-to	.	.	8g\	-to	.	.	.	.	.	.	.	.
2F\	.	4F\	Cor-	2A\	-de	4f\	Cor-	8r	.	.	.	.	.	.	.
.	.	.	.	.	.	.	.	8a\	in	.	.	.	.	.	.
.	.	4F\	-de	.	.	4f\	-de	8a\	to-	.	.	.	.	.	.
.	.	.	.	.	.	.	.	8b\	-to	.	.	.	.	.	.
!	!	!LO:LB:g=original	!	!	!	!	!	!	!	!	!	!	!	!	!
=39	=39	=39	=39	=39	=39	=39	=39	=39	=39	=39	=39	=39	=39	=39	=39
2C\	.	2C/	me-	4G/	me-	2e\	me-	2cc\	Cor-	.	.	.	.	.	.
.	.	.	.	4e\	.	.	.	.	.	.	.	.	.	.	.
2D\	X #3	2D\	-o	2d\	-o	2f#X\	-o	2a\	-de	.	.	.	.	.	.
!	!	!	!	!	!	!	!	!LO:LB:g=original	!	!	!	!	!	!	!
=40	=40	=40	=40	=40	=40	=40	=40	=40	=40	=40	=40	=40	=40	=40	=40
!	!	!	!	!	!	!	!	!	!	!LO:N:vis=00	!	!LO:N:vis=00	!	!LO:N:vis=00	!
1GG	X 3	2G\	in	4B\	in	4d\	in	2g\	me-	00r	.	00r	.	00r	.
.	.	.	.	4c\	Con-	4e\	con-	.	.	.	.	.	.	.	.
.	X n7	2G\	con-	4d\	-si-	4fn\	-si-	2g\	-o	.	.	.	.	.	.
.	.	.	.	4B\	-li-	4e\	-li-	.	.	.	.	.	.	.	.
!	!	!	!	!	!	!LO:LB:g=original	!	!	!	!	!	!	!	!	!
=41	=41	=41	=41	=41	=41	=41	=41	=41	=41	=41	=41	=41	=41	=41	=41
!	!	!	!	!	!	!	!	!LO:TX:b:t=3	!	!	!	!	!	!	!
!	!	!	!	!	!	!	!	!LO:N:vis=0	!	!	!	!	!	!	!
1GG	6 4	2G\	-si-	4c\	-o	4e\	-o	0r	.	.	.	.	.	.	.
.	.	.	.	4d\	ju-	4fn\	ju-	.	.	.	.	.	.	.	.
.	.	2G\	-li-	2e\	-sto:-	2g\	-sto-	.	.	.	.	.	.	.	.
!	!	!	!	!LO:LB:g=original	!	!	!	!	!	!	!	!	!	!	!
=42	=42	=42	=42	=42	=42	=42	=42	=42	=42	=42	=42	=42	=42	=42	=42
1GG	5 3	2G\	-o	4d\	-rum	4g\	-rum	.	.	.	.	.	.	.	.
.	.	.	.	4B\	&	4d\	&	.	.	.	.	.	.	.	.
.	.	2G\	ju-	4B\	con-	4d\	con-	.	.	.	.	.	.	.	.
.	.	.	.	4B\	-gre-	4d\	-gre-	.	.	.	.	.	.	.	.
=43	=43	=43	=43	=43	=43	=43	=43	=43	=43	=43	=43	=43	=43	=43	=43
1GG	6 4	4G\	-sto-	4c\	-ga-	4e\	-ga-	1r	.	.	.	.	.	.	.
.	.	4G\	-rum	4d\	-ti-	4fn\	-tio-	.	.	.	.	.	.	.	.
!	!	!LO:LB:g=original	!	!	!	!	!	!	!	!	!	!	!	!	!
.	.	4r	.	2e\	-o-	2g\	.	.	.	.	.	.	.	.	.
.	.	4G\	&	.	.	.	.	.	.	.	.	.	.	.	.
!LO:LB:g=original	!	!	!	!	!	!	!	!	!	!	!	!	!	!	!
=44	=44	=44	=44	=44	=44	=44	=44	=44	=44	=44	=44	=44	=44	=44	=44
!	!	!	!	!	!	!	!	!	!	!LO:N:vis=00	!	!LO:N:vis=00	!	!LO:N:vis=00	!
4GG/	5 3	2G\	Con-	4d\	-ne	4g\	-ne	4r	.	00r	.	00r	.	00r	.
4G\	.	.	.	4d\	&	4d\	&	4b\	&	.	.	.	.	.	.
4G\	.	2G\	-gre-	4B\	con-	4d\	con-	4b\	con-	.	.	.	.	.	.
4G\	.	.	.	4d\	-gre-	4d\	-gre:-	4b\	-gre-	.	.	.	.	.	.
!	!	!	!	!	!	!LO:LB:g=original	!	!	!	!	!	!	!	!	!
=45	=45	=45	=45	=45	=45	=45	=45	=45	=45	=45	=45	=45	=45	=45	=45
4E\	.	2E\	-ga-	8e\L	-ga-	4e\	-ga-	2b\	-ga-	.	.	.	.	.	.
.	.	.	.	8f\	.	.	.	.	.	.	.	.	.	.	.
4E\	.	.	.	8g\	.	4fn\	-tio-	.	.	.	.	.	.	.	.
.	.	.	.	8f\J	.	.	.	.	.	.	.	.	.	.	.
4C/	.	2C\	-ti-	2e\	.	2g\	.	2cc\	-ti-	.	.	.	.	.	.
4C/	.	.	.	.	.	.	.	.	.	.	.	.	.	.	.
!	!	!	!	!LO:LB:g=original	!	!	!	!	!	!	!	!	!	!	!
=46	=46	=46	=46	=46	=46	=46	=46	=46	=46	=46	=46	=46	=46	=46	=46
4D\	.	4D\	-o-	4d\	.	4f#X\	.	4dd\	-o-	.	.	.	.	.	.
4G\	.	4G\	.	4d\	-ti-	2g\	.	4b\	.	.	.	.	.	.	.
4D\	X 4	2D\	.	2d\	-o-	.	.	2a\	.	.	.	.	.	.	.
4DD/	X #3	.	.	.	.	4f#\	.	.	.	.	.	.	.	.	.
=47	=47	=47	=47	=47	=47	=47	=47	=47	=47	=47	=47	=47	=47	=47	=47
!LO:TX:i:a:t=Soli	!	!	!	!	!	!	!	!	!	!	!	!	!	!	!
8GG/L	.	4GG/	-ne	4d\	-ne	4g\	-ne	4g\	-ne	.	.	.	.	.	.
8AA/	.	.	.	.	.	.	.	.	.	.	.	.	.	.	.
8BB/	.	4r	.	4r	.	4r	.	4r	.	.	.	.	.	.	.
8AA/J	.	.	.	.	.	.	.	.	.	.	.	.	.	.	.
4GG/	.	2r	.	2r	.	2r	.	2r	.	.	.	.	.	.	.
4G\	.	.	.	.	.	.	.	.	.	.	.	.	.	.	.
!LO:LB:g=original	!	!LO:LB:g=original	!	!	!	!	!	!LO:LB:g=original	!	!	!	!	!	!	!
=48	=48	=48	=48	=48	=48	=48	=48	=48	=48	=48	=48	=48	=48	=48	=48
!	!	!LO:TX:b:t=21.	!	!LO:TX:b:t=21.	!	!LO:TX:b:t=21.	!	!LO:TX:b:t=21.	!	!LO:N:vis=0	!	!	!	!	!
!	!	!LO:N:vis=00	!LO:N:vis=00	!	!	!LO:N:vis=00	!	!LO:N:vis=00	!	!	!	!	!	!	!
4c\	.	00r	.	00r	.	00r	.	00r	.	0r	.	1r	.	1r	.
4d\	X #3	.	.	.	.	.	.	.	.	.	.	.	.	.	.
8G\L	.	.	.	.	.	.	.	.	.	.	.	.	.	.	.
8G\	.	.	.	.	.	.	.	.	.	.	.	.	.	.	.
8B\	.	.	.	.	.	.	.	.	.	.	.	.	.	.	.
8G\J	.	.	.	.	.	.	.	.	.	.	.	.	.	.	.
!	!	!	!	!	!	!	!	!	!	!	!	!	!	!LO:PB:g=original	!
=49	=49	=49	=49	=49	=49	=49	=49	=49	=49	=49	=49	=49	=49	=49	=49
8c\L	.	.	.	.	.	.	.	.	.	.	.	4g\	Con-	4cc\	Con-
8d\	.	.	.	.	.	.	.	.	.	.	.	.	.	.	.
8e\	.	.	.	.	.	.	.	.	.	.	.	4d\	-fi-	4g\	-fi-
8d\J	.	.	.	.	.	.	.	.	.	.	.	.	.	.	.
4c\	.	.	.	.	.	.	.	.	.	.	.	4.g\	-te-	4.cc\	-te-
4C\	.	.	.	.	.	.	.	.	.	.	.	.	.	.	.
.	.	.	.	.	.	.	.	.	.	.	.	8b\	-bor	8ee\	-bor
=50	=50	=50	=50	=50	=50	=50	=50	=50	=50	=50	=50	=50	=50	=50	=50
4F\	.	.	.	.	.	.	.	.	.	2r	.	8a\	ti-	8dd\	ti-
.	.	.	.	.	.	.	.	.	.	.	.	4g\	.	4cc\	.
4G\	.	.	.	.	.	.	.	.	.	.	.	.	.	.	.
.	.	.	.	.	.	.	.	.	.	.	.	8f#X\	-bi	8b\	-bi
8C\L	.	.	.	.	.	.	.	.	.	4r	.	8g\	do-	8cc\	Do-
8C\	.	.	.	.	.	.	.	.	.	.	.	16f#X\LL	-mi-	16b\LL	mi-
.	.	.	.	.	.	.	.	.	.	.	.	16e\JJ	.	16a\JJ	.
8C\	.	.	.	.	.	.	.	.	.	8r	.	4d\	-ne	4g\	-ne
8C\J	.	.	.	.	.	.	.	.	.	8G\	In	.	.	.	.
!	!	!	!	!	!	!	!	!	!	!	!	!LO:PB:g=original	!	!	!
=51	=51	=51	=51	=51	=51	=51	=51	=51	=51	=51	=51	=51	=51	=51	=51
!	!	!	!	!	!	!	!	!	!	!	!	!LO:TX:b:t=3	!	!LO:TX:b:t=1	!
!	!	!	!	!	!	!	!	!	!	!LO:SIC:l:v:s=to-	!	!LO:N:vis=0	!	!	!
8C/L	.	.	.	.	.	.	.	.	.	8c\	lo-	0r	.	1r	.
!	!	!	!	!	!	!	!	!	!	!LO:SIC:l:v:s=-to	!	!	!	!	!
8C/	.	.	.	.	.	.	.	.	.	8C/	-lo	.	.	.	.
8C/	.	.	.	.	.	.	.	.	.	8E\	cor-	.	.	.	.
8C/J	.	.	.	.	.	.	.	.	.	8F\	-de	.	.	.	.
!LO:LB:g=original	!	!	!	!	!	!	!	!	!	!LO:PB:g=original	!	!	!	!	!
8G\L	.	.	.	.	.	.	.	.	.	4G\	me-	.	.	.	.
8G\	.	.	.	.	.	.	.	.	.	.	.	.	.	.	.
8G\	.	.	.	.	.	.	.	.	.	8GG/	-o	.	.	.	.
8G\J	.	.	.	.	.	.	.	.	.	8G\	in	.	.	.	.
=52	=52	=52	=52	=52	=52	=52	=52	=52	=52	=52	=52	=52	=52	=52	=52
!	!	!	!	!	!	!	!	!	!	!	!	!LO:TX:t=P:problem=zbędne t. 53-54	!	!	!
1ryy	.	1ryy	.	1ryy	.	1ryy	.	1ryy	.	1ryy	.	.	.	1ryy	.
=53	=53	=53	=53	=53	=53	=53	=53	=53	=53	=53	=53	=53	=53	=53	=53
1ryy	.	1ryy	.	1ryy	.	1ryy	.	1ryy	.	1ryy	.	1r	.	1ryy	.
=54	=54	=54	=54	=54	=54	=54	=54	=54	=54	=54	=54	=54	=54	=54	=54
!LO:TX:t=P:problem=mixed beam	!	!	!	!	!	!	!	!	!	!	!	!	!	!	!
!	!	!LO:N:vis=00	!	!LO:N:vis=00	!	!LO:N:vis=00	!	!LO:N:vis=00	!	!	!	!	!	!	!
8A\L	.	00r	.	00r	.	00r	.	00r	.	8A\	to-	2r	.	2r	.
8AA/	.	.	.	.	.	.	.	.	.	8AA/	-to	.	.	.	.
8C/	.	.	.	.	.	.	.	.	.	8C/	cor-	.	.	.	.
8D/J	.	.	.	.	.	.	.	.	.	8D/	-de	.	.	.	.
8E\L	X #3	.	.	.	.	.	.	.	.	4E\	me-	2g#X\	in	2b\	in
8E\	.	.	.	.	.	.	.	.	.	.	.	.	.	.	.
8E\	.	.	.	.	.	.	.	.	.	4E\	-o	.	.	.	.
8E\J	.	.	.	.	.	.	.	.	.	.	.	.	.	.	.
!	!	!	!	!	!	!	!	!	!	!	!	!	!	!LO:LB:g=original	!
=55	=55	=55	=55	=55	=55	=55	=55	=55	=55	=55	=55	=55	=55	=55	=55
!	!	!	!	!	!	!	!	!	!	!LO:TX:b:t=2	!	!	!	!	!
!	!	!	!	!	!	!	!	!	!	!LO:N:vis=0	!	!	!	!	!
8E\L	X n3	.	.	.	.	.	.	.	.	0r	.	2gn\	Con-	2cc#X\	con-
8E\	.	.	.	.	.	.	.	.	.	.	.	.	.	.	.
8E\	.	.	.	.	.	.	.	.	.	.	.	.	.	.	.
8E\J	.	.	.	.	.	.	.	.	.	.	.	.	.	.	.
8D\L	X n	.	.	.	.	.	.	.	.	.	.	4.fn\	-ſi-	4.dd\	-ſi-
8Fn\J	X 3	.	.	.	.	.	.	.	.	.	.	.	.	.	.
8F\L	.	.	.	.	.	.	.	.	.	.	.	.	.	.	.
16E\L	.	.	.	.	.	.	.	.	.	.	.	8g\	.	8ee\	.
16D\JJ	.	.	.	.	.	.	.	.	.	.	.	.	.	.	.
=56	=56	=56	=56	=56	=56	=56	=56	=56	=56	=56	=56	=56	=56	=56	=56
8C#X/L	X 6	.	.	.	.	.	.	.	.	.	.	2a\	-li-	4.ee\	-li-
8BB/	.	.	.	.	.	.	.	.	.	.	.	.	.	.	.
8C#/	.	.	.	.	.	.	.	.	.	.	.	.	.	.	.
8AA/J	.	.	.	.	.	.	.	.	.	.	.	.	.	8ffn\	.
!LO:LB:g=original	!	!	!	!	!	!	!	!	!	!	!	!	!	!	!
8D\L	.	.	.	.	.	.	.	.	.	.	.	4a\	-o	4ff\	-o
8d\	.	.	.	.	.	.	.	.	.	.	.	.	.	.	.
8B-X\	.	.	.	.	.	.	.	.	.	.	.	4b-X\	ius-	8gg\L	ius-
8G\J	X -3	.	.	.	.	.	.	.	.	.	.	.	.	8ee\J	.
=57	=57	=57	=57	=57	=57	=57	=57	=57	=57	=57	=57	=57	=57	=57	=57
8A\L	.	.	.	.	.	.	.	.	.	4r	.	4fn\	-to-	4dd\	-to-
8A\	.	.	.	.	.	.	.	.	.	.	.	.	.	.	.
8A\	.	.	.	.	.	.	.	.	.	8r	.	4e\	.	4cc#X\	.
8A\J	.	.	.	.	.	.	.	.	.	8A\	et	.	.	.	.
8D\L	.	.	.	.	.	.	.	.	.	8Fn\	con-	4f\	-rum	4dd\	-rum
8D\	.	.	.	.	.	.	.	.	.	8D\	-gre-	.	.	.	.
8d\	.	.	.	.	.	.	.	.	.	8d\	-ga-	4a\	et	8r	.
8cn\J	.	.	.	.	.	.	.	.	.	8c\	-ti-	.	.	8dd\	et
!	!	!	!	!	!	!	!	!	!	!LO:LB:g=original	!	!LO:LB:g=original	!	!LO:LB:g=original	!
=58	=58	=58	=58	=58	=58	=58	=58	=58	=58	=58	=58	=58	=58	=58	=58
!	!	!LO:N:vis=00	!	!LO:N:vis=00	!	!LO:N:vis=00	!	!LO:N:vis=00	!	!	!	!	!	!	!
8Bn\L	.	00r	.	00r	.	00r	.	00r	.	8B\	-o-	4g\	con-	8gg\	con-
8G\J	.	.	.	.	.	.	.	.	.	8G\	-ne	.	.	8dd\	-gre-
8r	.	.	.	.	.	.	.	.	.	8r	.	4bn\	-gre-	8gg\L	-ga-
8G\	.	.	.	.	.	.	.	.	.	8G\	et	.	.	8ff\J	.
!LO:TX:t=P:problem=mixed beam	!	!	!	!	!	!	!	!	!	!	!	!	!	!	!
8c\L	.	.	.	.	.	.	.	.	.	8c\	Con-	4cc\	-ga-	8ee\L	.
8C/	.	.	.	.	.	.	.	.	.	8C/	-gre-	.	.	16dd\L	.
.	.	.	.	.	.	.	.	.	.	.	.	.	.	16ee\JJ	.
8c\	.	.	.	.	.	.	.	.	.	8c\L	-ga-	8e\L	.	8cc\L	.
8B\J	.	.	.	.	.	.	.	.	.	8B\J	.	8g\J	.	8ee\J	.
!LO:PB:g=original	!	!	!	!	!	!	!	!	!	!	!	!	!	!	!
=59	=59	=59	=59	=59	=59	=59	=59	=59	=59	=59	=59	=59	=59	=59	=59
8A\L	X 6	.	.	.	.	.	.	.	.	8A\L	.	4f\	.	4ff\	.
16G\L	.	.	.	.	.	.	.	.	.	16G\L	.	.	.	.	.
16A\JJ	.	.	.	.	.	.	.	.	.	16A\JJ	.	.	.	.	.
8F\L	.	.	.	.	.	.	.	.	.	8F\L	.	4a\	.	4cc\	.
8F\J	.	.	.	.	.	.	.	.	.	8F\J	.	.	.	.	.
!LO:TX:t=P:problem=mixed beam	!	!	!	!	!	!	!	!	!	!LO:TX:t=P:problem=mixed beam	!	!	!	!	!
8Bn\L	.	.	.	.	.	.	.	.	.	8B\L	.	4b\	.	8dd\L	.
8BB/J	.	.	.	.	.	.	.	.	.	8BB/	.	.	.	16cc\L	.
.	.	.	.	.	.	.	.	.	.	.	.	.	.	16dd\JJ	.
8B\L	.	.	.	.	.	.	.	.	.	8B\	.	8d\L	.	8b\L	.
8A\J	.	.	.	.	.	.	.	.	.	8A\J	.	8f\J	.	8dd\J	.
=60	=60	=60	=60	=60	=60	=60	=60	=60	=60	=60	=60	=60	=60	=60	=60
8G\L	X 5	.	.	.	.	.	.	.	.	8G\L	.	4d\	.	4ee\	.
16F\L	.	.	.	.	.	.	.	.	.	16F\L	.	.	.	.	.
16G\JJ	.	.	.	.	.	.	.	.	.	16G\JJ	.	.	.	.	.
8E\L	.	.	.	.	.	.	.	.	.	8E\L	.	4g\	.	4b\	.
8G\J	.	.	.	.	.	.	.	.	.	8E\J	.	.	.	.	.
!	!	!	!	!	!	!	!	!	!	!LO:LB:g=original	!	!	!	!	!
!LO:TX:t=P:problem=mixed beam	!	!	!	!	!	!	!	!	!	!LO:TX:t=P:problem=mixed beam	!	!	!	!	!
8A\L	.	.	.	.	.	.	.	.	.	8A\L	.	4a\	.	8cc\L	.
8AA/J	.	.	.	.	.	.	.	.	.	8AA/	.	.	.	16b\L	.
.	.	.	.	.	.	.	.	.	.	.	.	.	.	16cc\JJ	.
8A\L	.	.	.	.	.	.	.	.	.	8A\	.	4c\	.	8a\L	.
8G\J	.	.	.	.	.	.	.	.	.	8G\J	.	.	.	8b\J	.
!	!	!	!	!	!	!	!	!	!	!	!	!	!	!LO:LB:g=original	!
=61	=61	=61	=61	=61	=61	=61	=61	=61	=61	=61	=61	=61	=61	=61	=61
4F#X\	.	.	.	.	.	.	.	.	.	4F#X\	.	4d\	.	4cc\	.
4F#\	.	.	.	.	.	.	.	.	.	4F#\	-ti-	4d\	-tio-	4cc\	-ti-
!LO:LB:g=original	!	!	!	!	!	!	!	!	!	!	!	!	!	!	!
4G\	.	.	.	.	.	.	.	.	.	4G\	-o-	8d\	-ne	8cc\	-one
.	.	.	.	.	.	.	.	.	.	.	.	8d\	.	8b\	.
4GG/	.	.	.	.	.	.	.	.	.	8GG/	-ne	4r	.	4r	.
.	.	.	.	.	.	.	.	.	.	8GG/	et	.	.	.	.
!	!	!	!	!	!	!	!	!	!	!	!	!LO:LB:g=original	!	!	!
=62	=62	=62	=62	=62	=62	=62	=62	=62	=62	=62	=62	=62	=62	=62	=62
!	!	!LO:N:vis=00	!	!LO:N:vis=00	!	!LO:N:vis=00	!	!LO:N:vis=00	!	!	!	!	!	!	!
1GG	X n7	00r	.	00r	.	00r	.	00r	.	1GG	con-	4d\	et	(>4b\	et
.	.	.	.	.	.	.	.	.	.	.	.	4e\	.	4cc\)	.
.	.	.	.	.	.	.	.	.	.	.	.	4fn\	con-	4dd\	con-
.	.	.	.	.	.	.	.	.	.	.	.	8e\L	-gre-	8cc\L	-gre-
.	.	.	.	.	.	.	.	.	.	.	.	8d\J	.	8b\J	.
=63	=63	=63	=63	=63	=63	=63	=63	=63	=63	=63	=63	=63	=63	=63	=63
1GG	6 4	.	.	.	.	.	.	.	.	1GG	-gre-	4e\	-ga-	4cc\	-ga-
.	.	.	.	.	.	.	.	.	.	.	.	4f\	.	4dd\	.
.	.	.	.	.	.	.	.	.	.	.	.	4g\	.	4ee\	.
.	.	.	.	.	.	.	.	.	.	.	.	8f\L	.	8dd\L	.
.	.	.	.	.	.	.	.	.	.	.	.	8e\J	.	8cc\J	.
=64	=64	=64	=64	=64	=64	=64	=64	=64	=64	=64	=64	=64	=64	=64	=64
1GG	5 3	.	.	.	.	.	.	.	.	1GG	-ga-	4B/	.	4dd\	.
.	.	.	.	.	.	.	.	.	.	.	.	4c/	.	4ee\	.
!	!	!	!	!	!	!	!	!	!	!	!	!	!	!LO:LB:g=original	!
.	.	.	.	.	.	.	.	.	.	.	.	4d\	.	4ff\	.
.	.	.	.	.	.	.	.	.	.	.	.	8c/L	.	8ee\L	.
.	.	.	.	.	.	.	.	.	.	.	.	8B/J	.	8dd\J	.
=65	=65	=65	=65	=65	=65	=65	=65	=65	=65	=65	=65	=65	=65	=65	=65
4C\	.	.	.	.	.	.	.	.	.	4C/	.	4.c\	.	16ee\KL	.
.	.	.	.	.	.	.	.	.	.	.	.	.	.	8.cc\J	.
8A\L	.	.	.	.	.	.	.	.	.	8A\	.	.	.	16ff\	.
.	.	.	.	.	.	.	.	.	.	.	.	.	.	8.a\	-ti-
8F\J	.	.	.	.	.	.	.	.	.	8F\	-ti-	8a\	-ti-	.	.
2G\	.	.	.	.	.	.	.	.	.	2G\	-o-	2d\	-o-	2b\	-o-
!	!	!	!	!	!	!	!	!	!	!LO:LB:g=original	!	!LO:LB:g=original	!	!	!
=66	=66	=66	=66	=66	=66	=66	=66	=66	=66	=66	=66	=66	=66	=66	=66
!	!	!	!	!	!	!	!	!LO:N:vis=00	!	!	!	!	!	!	!
!LO:TX:t=P:problem=mixed beam	!	!LO:N:vis=00	!	!LO:N:vis=00	!	!LO:N:vis=00	!	!	!	!LO:TX:t=P:problem=mixed beam	!	!	!	!	!
8C/L	.	00r	.	00r	.	00r	.	00r	.	8C/L	-ne	4e\	-ne	4cc\	-ne
8c\	.	.	.	.	.	.	.	.	.	8c\	et	.	.	.	.
8B\	.	.	.	.	.	.	.	.	.	8B\	con-	4r	.	4r	.
8A\J	.	.	.	.	.	.	.	.	.	8A\J	.	.	.	.	.
!LO:LB:g=original	!	!	!	!	!	!	!	!	!	!	!	!	!	!	!
8G\L	.	.	.	.	.	.	.	.	.	8G\L	-gre-	2r	.	2r	.
8E\	.	.	.	.	.	.	.	.	.	8C\	.	.	.	.	.
8D\	X 6	.	.	.	.	.	.	.	.	8BB\	-ga-	.	.	.	.
8C\J	X #6	.	.	.	.	.	.	.	.	8AA\J	.	.	.	.	.
=67	=67	=67	=67	=67	=67	=67	=67	=67	=67	=67	=67	=67	=67	=67	=67
1GG	5 3	.	.	.	.	.	.	.	.	1GG	.	(>4d\	et	4b\	et
.	.	.	.	.	.	.	.	.	.	.	.	4e\)	.	4cc\	.
.	.	.	.	.	.	.	.	.	.	.	.	4f\	Con-	4dd\	con-
.	.	.	.	.	.	.	.	.	.	.	.	8e\L	-gre-	8cc\L	.
.	.	.	.	.	.	.	.	.	.	.	.	8d\J	.	8b\J	.
!	!	!	!	!	!	!	!	!	!	!	!	!	!	!LO:LB:g=original	!
=68	=68	=68	=68	=68	=68	=68	=68	=68	=68	=68	=68	=68	=68	=68	=68
1GG	6 4	.	.	.	.	.	.	.	.	1GG	.	4e\	-ga-	4cc\	-gre-
.	.	.	.	.	.	.	.	.	.	.	.	4f\	.	4dd\	.
.	.	.	.	.	.	.	.	.	.	.	.	4g\	.	4ee\	-ga-
.	.	.	.	.	.	.	.	.	.	.	.	8f\L	.	8dd\L	.
.	.	.	.	.	.	.	.	.	.	.	.	8e\J	.	8cc\J	.
=69	=69	=69	=69	=69	=69	=69	=69	=69	=69	=69	=69	=69	=69	=69	=69
1GG	7 3	.	.	.	.	.	.	.	.	1GG	.	4B\	.	4dd\	.
.	.	.	.	.	.	.	.	.	.	.	.	4c\	.	4ee\	.
.	.	.	.	.	.	.	.	.	.	.	.	4d\	.	4ff\	.
.	.	.	.	.	.	.	.	.	.	.	.	8c/L	.	8ee\L	.
.	.	.	.	.	.	.	.	.	.	.	.	8B/J	.	8dd\J	.
!	!	!	!	!	!	!	!	!	!	!	!	!LO:LB:g=original	!	!	!
=70	=70	=70	=70	=70	=70	=70	=70	=70	=70	=70	=70	=70	=70	=70	=70
4C\	.	1r	.	1r	.	1r	.	1r	.	4C\	.	4.c\	.	16ee\KL	.
.	.	.	.	.	.	.	.	.	.	.	.	.	.	8.cc\J	.
8A\L	.	.	.	.	.	.	.	.	.	8A\L	-ti-	.	.	8ff\	.
8F\J	.	.	.	.	.	.	.	.	.	8F\J	.	8a\	-ti-	8a\	-ti-
2G\	.	.	.	.	.	.	.	.	.	2G\	-o-	2dM>\	-o-	2bm>\	-o-
!	!	!	!	!	!	!LO:LB:g=original	!	!	!	!	!	!	!	!	!
=71	=71	=71	=71	=71	=71	=71	=71	=71	=71	=71	=71	=71	=71	=71	=71
!LO:TX:i:b:t=Tutti	!	!	!	!	!	!	!	!	!	!	!	!	!	!	!
2C/	.	2C/	Con-	2e\	Con-	2g\	Con-	2cc\	Con-	2C/	-ne	4c\	-ne	4cc\	-ne
.	.	.	.	.	.	.	.	.	.	.	.	4r	.	4r	.
!	!	!	!	!	!	!	!	!	!	!	!	!	!	!LO:LB:g=original	!
!	!	!	!	!	!	!	!	!	!	!LO:TX:t=P:problem=partia kończy się w t. 72	!	!	!	!	!
2D\	.	2F\	-fi-	2f\	-fi-	2a\	-fi-	2cc\	-fi-	2ryy	.	2r	.	2r	.
!LO:LB:g=original	!	!	!	!	!	!	!	!	!	!	!	!	!	!	!
=72	=72	=72	=72	=72	=72	=72	=72	=72	=72	=72	=72	=72	=72	=72	=72
!	!	!	!	!	!	!	!	!	!	!	!	!LO:TX:b:t=17	!	!LO:TX:b:t=17.	!
!	!	!	!	!	!	!	!	!	!	!	!	!LO:N:vis=00	!	!LO:N:vis=00	!
4E\	X 6	4E/	-te-	4c\	-te-	4g\	-te-	4cc\	-te-	1ryy	.	00r	.	00r	.
8D\L	.	8D/L	-bor	8d\L	-bor	8f\L	-bor	4cc\	-bor	.	.	.	.	.	.
8C\J	.	8C/J	.	8e\J	.	8e\J	.	.	.	.	.	.	.	.	.
!	!	!	!	!LO:LB:g=original	!	!	!	!	!	!	!	!	!	!	!
4F\	.	4F\	Ti-	4f\	Ti-	4a\	ti-	4cc\	ti-	.	.	.	.	.	.
4F\	.	4F\	-bi	4f\	-bi	4a\	-bi	4cc\	-bi	.	.	.	.	.	.
=73	=73	=73	=73	=73	=73	=73	=73	=73	=73	=73	=73	=73	=73	=73	=73
4E\	X 6	4E\	Do-	4c\	Do-	4g\	Do-	4cc\	Do-	1ryy	.	.	.	.	.
8D\L	.	8D\L	-mi-	8d\L	-mi-	8f\L	-mi-	4cc\	-mi-	.	.	.	.	.	.
8C\J	.	8C\J	.	8e\J	.	8e\J	.	.	.	.	.	.	.	.	.
4F\	.	4F\	-ne	4f\	-ne	4a\	-ne	4cc\	-ne	.	.	.	.	.	.
4F\	.	4F\	in	4f\	in	4a\	in	4cc\	in	.	.	.	.	.	.
!	!	!LO:LB:g=original	!	!	!	!	!	!	!	!	!	!	!	!	!
=74	=74	=74	=74	=74	=74	=74	=74	=74	=74	=74	=74	=74	=74	=74	=74
4E\	X 6	4E\	to-	4c\	To-	4g\	to-	4cc\	to-	1ryy	.	.	.	.	.
4C\	.	4C/	-to	4e\	-to	4g\	-to	4cc\	-to	.	.	.	.	.	.
!	!	!	!	!	!	!LO:LB:g=original	!	!	!	!	!	!	!	!	!
!LO:TX:a:t=P:problem=niejednoznaczny zapis bc. Przyjęto "7"	!	!	!	!	!	!	!	!	!	!	!	!	!	!	!
4D\	X 7	4D\	Cor-	4d\	Cor-	4f\	Cor-	4dd\	Cor-	.	.	.	.	.	.
4GG/	.	4GG/	-de	4d\	-de	4g\	-de	4b\	-de	.	.	.	.	.	.
!	!	!	!	!	!	!	!	!LO:LB:g=original	!	!	!	!	!	!	!
=75	=75	=75	=75	=75	=75	=75	=75	=75	=75	=75	=75	=75	=75	=75	=75
4C/	.	4C/	me-	4e\	me-	4g\	me-	4cc\	me-	1ryy	.	.	.	.	.
4C/	.	4C/	-o	4e\	-o	4g\	-o	4cc\	-o	.	.	.	.	.	.
8c\L	.	8c\L	in	4c\	in	4g\	in	4ee\	in	.	.	.	.	.	.
8B\	.	8B\J	.	.	.	.	.	.	.	.	.	.	.	.	.
8A\	.	8A\L	con-	4e\	Con:-	8cc\L	con-	4ee\	con-	.	.	.	.	.	.
8G\J	.	8G\J	.	.	.	8b\J	.	.	.	.	.	.	.	.	.
!LO:LB:g=original	!	!	!	!LO:LB:g=original	!	!	!	!	!	!	!	!	!	!	!
=76	=76	=76	=76	=76	=76	=76	=76	=76	=76	=76	=76	=76	=76	=76	=76
!	!	!	!	!	!	!	!	!	!	!	!	!LO:N:vis=00	!	!LO:N:vis=00	!
4F\	.	4F\	-si-	4f\	-ſi-	4a\	-si-	4ee\	-si-	1ryy	.	00r	.	00r	.
4A\	X 6	4A\	lio	4f\	-lio-	4a\	-li-	4ee\	-li-	.	.	.	.	.	.
4B\	.	4B\	.	4f\	.	4a\	-o	4dd\	-o	.	.	.	.	.	.
4BB/	.	4BB/	Ju:-	4f\	ju-	4a\	ju-	4dd\	ju-	.	.	.	.	.	.
!	!	!LO:LB:g=original	!	!	!	!	!	!	!	!	!	!	!	!	!
=77	=77	=77	=77	=77	=77	=77	=77	=77	=77	=77	=77	=77	=77	=77	=77
4E\	.	4E\	-ſto-	4e\	-sto-	4g\	-sto-	4dd\	-sto-	1ryy	.	.	.	.	.
!	!	!LO:SIC:l:v:s=-rum	!	!	!	!	!	!	!	!	!	!	!	!	!
4E\	.	4E\	-rur	4e\	-ru(m)	4g\	-rum	4dd\	-rum	.	.	.	.	.	.
!	!	!	!	!LO:TX:t=P:problem=w cgiągu trzech następnych taktowów nie zgadza się harmonia, ale nie potrafię znaleźć rozwiązania...	!	!	!	!	!	!	!	!	!	!	!
8A\L	.	8A\L	in	2e\	in	4a\	in	4cc\	in	.	.	.	.	.	.
8G\	.	8G\J	.	.	.	.	.	.	.	.	.	.	.	.	.
8F\	.	8F\L	Con-	.	.	4a\	Con:-	4cc\	con-	.	.	.	.	.	.
8E\J	.	8E\J	.	.	.	.	.	.	.	.	.	.	.	.	.
!	!	!	!	!	!	!LO:LB:g=original	!	!	!	!	!	!	!	!	!
=78	=78	=78	=78	=78	=78	=78	=78	=78	=78	=78	=78	=78	=78	=78	=78
4D\	.	4D\	-si-	2d\	Con-	4a\	-si-	4cc\	-si-	1ryy	.	.	.	.	.
4F\	.	4F\	-li-	.	.	4a\	-li-	4cc\	-lio	.	.	.	.	.	.
!LO:TX:a:t=P:problem=niejednoznaczny zapis bc. Przyjęto "7"	!	!	!	!	!	!	!	!	!	!	!	!	!	!	!
4G\	X 7	4G\	-o	2c\	-si-	4g\	-o	4b\	ju-	.	.	.	.	.	.
4GG/	.	4GG/	Ju-	.	.	4g\	ju-	4b\	-sto:-	.	.	.	.	.	.
!	!	!	!	!	!	!	!	!LO:LB:g=original	!	!	!	!	!	!	!
=79	=79	=79	=79	=79	=79	=79	=79	=79	=79	=79	=79	=79	=79	=79	=79
4C/	.	4C/	-sto-	4B\	-lio	4g\	-sto-	4cc\	-rum	1ryy	.	.	.	.	.
4C/	.	4C/	-ru(m)	4B\	.	4g\	-rum	4cc\	.	.	.	.	.	.	.
2c\	.	2c\	&	4A\	Ju-	2g\	&	8cc\L	&	.	.	.	.	.	.
.	.	.	.	.	.	.	.	8dd\J	.	.	.	.	.	.	.
.	.	.	.	4A\	-sto:-	.	.	8ee\	con-	.	.	.	.	.	.
.	.	.	.	.	.	.	.	8ff\	-gre-	.	.	.	.	.	.
!	!	!LO:PB:g=original	!	!LO:LB:g=original	!	!	!	!	!	!	!	!	!	!	!
=80	=80	=80	=80	=80	=80	=80	=80	=80	=80	=80	=80	=80	=80	=80	=80
!	!	!	!	!	!	!	!	!	!	!	!	!LO:N:vis=00	!	!LO:N:vis=00	!
2B\	X 6	2B\	Con-	4e\	-rum	2g\	con-	8gg\L	-ga-	1ryy	.	00r	.	00r	.
.	.	.	.	.	.	.	.	8g\	.	.	.	.	.	.	.
!	!	!	!	!LO:N:vis=2	!	!	!	!	!	!	!	!	!	!	!
.	.	.	.	4e\	Et	.	.	8b\	.	.	.	.	.	.	.
.	.	.	.	.	.	.	.	8g\J	.	.	.	.	.	.	.
!	!	!	!	!LO:N:vis=2	!	!	!	!	!	!	!	!	!	!	!
2A\	X 5	2A\	-gre-	4d\	Con-	2e\	-gre-	8a\L	.	.	.	.	.	.	.
.	.	.	.	.	.	.	.	8b\	.	.	.	.	.	.	.
!	!	!	!	!LO:N:vis=2	!	!	!	!	!	!	!	!	!	!	!
.	.	.	.	4c\	-gre-	.	.	8cc\	.	.	.	.	.	.	.
.	.	.	.	.	.	.	.	8dd\J	.	.	.	.	.	.	.
!LO:LB:g=original	!	!	!	!	!	!	!	!	!	!	!	!	!	!	!
=81	=81	=81	=81	=81	=81	=81	=81	=81	=81	=81	=81	=81	=81	=81	=81
!	!	!	!	!	!	!	!	!LO:TX:t=P:problem=mixed beam	!	!	!	!	!	!	!
2G\	X 6	4G\	-ga-	4B\	-ga-	4d\	-ga-	8ee\L	.	1ryy	.	.	.	.	.
.	.	.	.	.	.	.	.	8e/	.	.	.	.	.	.	.
.	.	4G\	-ti-	4B\	-ti-	4g\	-ti-	8g/	.	.	.	.	.	.	.
.	.	.	.	.	.	.	.	8e/J	.	.	.	.	.	.	.
2F\	X 5	4F\	-o-	4A\	-o-	4c\	-o-	8f\L	.	.	.	.	.	.	.
.	.	.	.	.	.	.	.	8g\	.	.	.	.	.	.	.
.	.	4F\	-ne	4A\	-ne	4c\	-ne	8a\	.	.	.	.	.	.	.
.	.	.	.	.	.	.	.	8b\J	.	.	.	.	.	.	.
!	!	!	!	!LO:PB:g=original	!	!LO:PB:g=original	!	!LO:LB:g=original	!	!	!	!	!	!	!
=82	=82	=82	=82	=82	=82	=82	=82	=82	=82	=82	=82	=82	=82	=82	=82
8C\L	.	8C\L	&	2e\	&	2cc\	&	8cc\L	-ti-	1ryy	.	.	.	.	.
8D\	.	8D\J	.	.	.	.	.	8b\J	-o-	.	.	.	.	.	.
8E\	.	8E\	Con-	.	.	.	.	4b\	-ne	.	.	.	.	.	.
8F\J	.	8F\	-gre-	.	.	.	.	.	.	.	.	.	.	.	.
8G\L	.	8G\L	-ga-	2d\	Con:-	2b\	con-	2r	.	.	.	.	.	.	.
8A\	.	8A\	.	.	.	.	.	.	.	.	.	.	.	.	.
8B\	.	8B\	.	.	.	.	.	.	.	.	.	.	.	.	.
8G\J	.	8G\J	.	.	.	.	.	.	.	.	.	.	.	.	.
!	!	!LO:LB:g=original	!	!	!	!	!	!	!	!	!	!	!	!	!
=83	=83	=83	=83	=83	=83	=83	=83	=83	=83	=83	=83	=83	=83	=83	=83
8A\L	.	8A\L	.	2c\	-gre-	2a\	-gre-	2r	.	1ryy	.	.	.	.	.
8B\	.	8B\	.	.	.	.	.	.	.	.	.	.	.	.	.
8c\	.	8c\	.	.	.	.	.	.	.	.	.	.	.	.	.
8d\J	.	8d\J	.	.	.	.	.	.	.	.	.	.	.	.	.
8e\L	.	8e\L	.	2B\	-ga-	2g\	-ga-	4r	.	.	.	.	.	.	.
8E\	.	8E\	.	.	.	.	.	.	.	.	.	.	.	.	.
8G\	.	8G\	.	.	.	.	.	4ee\	&	.	.	.	.	.	.
8E\J	.	8E\J	.	.	.	.	.	.	.	.	.	.	.	.	.
=84	=84	=84	=84	=84	=84	=84	=84	=84	=84	=84	=84	=84	=84	=84	=84
!	!	!	!	!	!	!	!	!	!	!	!	!LO:N:vis=00	!	!LO:N:vis=00	!
8F\L	.	8F\L	.	2A\	.	2f\	-tio-	4a\	Con-	1ryy	.	00r	.	00r	.
8G\	.	8G\	.	.	.	.	.	.	.	.	.	.	.	.	.
8A\	.	8A\	.	.	.	.	.	4cc\	-gre-	.	.	.	.	.	.
8B\J	.	8B\J	.	.	.	.	.	.	.	.	.	.	.	.	.
!	!	!LO:TX:t=P:problem=mixed beam	!	!	!	!	!	!	!	!	!	!	!	!	!
8c\L	.	8c\L	.	4G\	.	4e\	.	4g/	-ga-	.	.	.	.	.	.
8C\	.	8C/	.	.	.	.	.	.	.	.	.	.	.	.	.
8E\	.	8E/	.	4c\	.	4g\	.	4e/	-ti-	.	.	.	.	.	.
8C\J	.	8C/J	.	.	.	.	.	.	.	.	.	.	.	.	.
!LO:LB:g=original	!	!	!	!	!	!	!	!	!	!	!	!	!	!	!
=85	=85	=85	=85	=85	=85	=85	=85	=85	=85	=85	=85	=85	=85	=85	=85
4F\	.	4F\	.	4A\	.	2f\	.	4a\	-o-	1ryy	.	.	.	.	.
4A\	X 6	4A\	-ti-	4c\	-ti-	.	.	4f\	.	.	.	.	.	.	.
2G\	X 4	2G\	-o:-	4c\	-o-	2d\	.	2g\	.	.	.	.	.	.	.
.	X 3	.	.	4B\	.	.	.	.	.	.	.	.	.	.	.
!	!	!LO:LB:g=original	!	!	!	!	!	!LO:PB:g=original	!	!	!	!	!	!	!
=86	=86	=86	=86	=86	=86	=86	=86	=86	=86	=86	=86	=86	=86	=86	=86
4C/	.	4C/	-ne	4c\	-ne	4e\	-ne	4g\	-ne	1ryy	.	.	.	.	.
4c\	.	4c\	&	4e\	&	4g\	&	4cc\	&	.	.	.	.	.	.
4c\	.	4c\	Con-	4e\	con-	4g\	con-	4cc\	Con-	.	.	.	.	.	.
4c\	.	4c\	-gre-	4e\	-gre:-	4g\	-gre-	4cc\	-gre-	.	.	.	.	.	.
!	!	!	!	!LO:LB:g=original	!	!LO:LB:g=original	!	!	!	!	!	!	!	!	!
=87	=87	=87	=87	=87	=87	=87	=87	=87	=87	=87	=87	=87	=87	=87	=87
4F\	.	4F\	-ga-	4f\	-ga-	4a\	-ga-	4cc\	-ga-	1ryy	.	.	.	.	.
4E\	X 6	4E\	-ti-	4c\	-ti-	4g\	-ti-	4cc\	-ti-	.	.	.	.	.	.
!	!	!	!	!LO:SIC:t:v:s=lub 2e	!	!	!	!	!	!	!	!	!	!	!
4F\	.	4F\	-o-	2d\	-o-	4a\	-o-	4cc\	-o-	.	.	.	.	.	.
4G\	6 5	4G\	.	.	.	4g\	.	4b\	.	.	.	.	.	.	.
=88	=88	=88	=88	=88	=88	=88	=88	=88	=88	=88	=88	=88	=88	=88	=88
1C;>	.	1C	-ne.	1e	-ne.	1g	-ne	1cc	-ne	1ryy	.	1r	.	1r	.
==	==	==	==	==	==	==	==	==	==	==	==	==	==	==	==
*-	*-	*-	*-	*-	*-	*-	*-	*-	*-	*-	*-	*-	*-	*-	*-
!!!system-decoration: [g1][g2][s8]
!!!RDF**kern: > = above
!!!RDF**kern: < = below
!!!EED: Mateusz Mrugas
!!!EEV: 2021-02-16
!!!ENC: Marcin Jachim
!!!END: 2021-02-04
